app/dist/common/images/ship-finance-international.svg

<svg height="18" width="18" xmlns="http://www.w3.org/2000/svg"><path d="m0 0h18v18h-18z" fill="#0b3251"/><path d="m14 6h-1v-1h-8v1h-1v-2h10zm-7.003 3.874c-.075 1.078-1.078 1.176-1.656 1.11a2.776 2.776 0 0 1 -1.341-.55l.442-.788c.397.49 1.575.651 1.656.23.135-.686-1.97-.313-1.798-1.831.064-.566.408-1.105 1.483-1.04.684.045 1.02.306 1.095.371l-.341.817c-.323-.332-1.253-.523-1.338-.076-.116.587 1.889.387 1.798 1.758m4.503-2.874.004 3.999 2.496-.003-.001-.997h-1.499v-3zm-.937.999v-1h-2.55v1zm-2.55 3h.838v-1h-.837v1zm0-2.5v1h1.594v-1h-1.593zm5.293 5.5h-8.611a.657.657 0 0 1 -.695-.66v-1.34h1v.894c.006.117.062.106.105.106h7.776c.123-.005.115-.065.115-.105v-.898l1.004.003v1.34c0 .483-.415.66-.694.66z" fill="#fff"/></svg>

<!-- by TradingView --><svg width="18" height="18" xmlns="http://www.w3.org/2000/svg"><path fill="#0B3251" d="M0 0h18v18H0z"/><path d="M14 6h-1V5H5v1H4V4h10v2zM6.997 9.874c-.075 1.078-1.078 1.176-1.656 1.11A2.776 2.776 0 014 10.434l.442-.788c.397.49 1.575.651 1.656.23.135-.686-1.97-.313-1.798-1.831.064-.566.408-1.105 1.483-1.04.684.045 1.02.306 1.095.371l-.341.817c-.323-.332-1.253-.523-1.338-.076-.116.587 1.889.387 1.798 1.758M11.5 7.001L11.504 11 14 10.997 13.999 10H12.5V7l-1 .001zM10.563 8V7h-2.55v1h2.55zm-2.55 3h.838v-1h-.837v1zm0-2.5v1h1.594v-1H8.014zM13.306 14H4.695A.657.657 0 014 13.34V12h1v.894c.006.117.062.106.105.106h7.776c.123-.005.115-.065.115-.105v-.898L14 12v1.34c0 .483-.415.66-.694.66z" fill="#fff"/></svg>
